X:1

T:Bashful Bachelor, The [1]

M:C|

L:1/8

R:Reel

S:O’Neill – Music of Ireland (1903), No. 1443

Z:AK/Fiddler’s Companion

K:D

D2 FA d2 AF|d2 fd ecAc|d2 Ad BAGF|EFGE FD D2|D2 FA d2 AF|

D2 fd ecAc|defg a2 af|bgeg fd d2||d2 dg (3fga fd|g2 bg e2 cA|

d2 dg (3fga fd|ecAc d2 FA|d2 dg (3fga fd|g2 bg e2 fg|afge fdec| dBAG FD D2||

 


BASHFUL BACHELOR [2], THE (An Baitsiléir Cúthail). AKA and see “Obelisk Hornpipe,” “Shaw’s Reel,” “Where Did You Find Her? [2]” "The Wily Old Bachelor." Irish (originally), Canadian; Hornpipe. Canada, Prince Edward Island. G Major. Standard tuning. AABB. A different tune than O’Neill’s “Bashful Bachelor [1].” “Where Did You Find Her? [2]” is related to “Bashful Bachelor [2]” only in the second part. See also the related “Men from Ulster.” Sources for notated versions: fiddler Paddy Cronin (Ireland) [Breathnach]; Wilfred Gotell, b. 1927 (Georgetown, Central Kings County, Prince Edward Island) [Perlman]. Allan's Irish Fiddler, No. 83, pg. 21. Breathnach (CRÉ III), 1985; No. 214, pg. 98. Perlman (The Fiddle Music of Prince Edward Island), 1996; pg. 60. Outlet Records OAS 3002, Paddy Cronin ‑ "Kerry's Own Paddy Cronin" (1977).

 

BASHFUL BACHELOR [3], THE (An Baitsiléir Cúthail). Irish, Hornpipe. G Major. Standard tuning. AABB. Only generally similar to version #2. Source for notated version: flute player Seamus Tamsey (Ireland) [Breathnach]. Breathnach (CRÉ III), 1985; No. 215, pg. 99. Outlet Records OLP 1007, "The Best of Seamus Tansey" (1971).

           

BASHFUL BEAU, THE. AKA and see “Queen of May [2].” Irish, Reel. G Major. Standard tuning. AB. Source for notated version: the Rice-Walsh manuscript, a collection of music from the repertoire of Jeremiah Breen, a blind fiddler from North Kerry, notated by his student [O’Neill]. O’Neill (Waifs and Strays of Gaelic Melody), 1922; No. 224.

